!!!OTL: Bean an fhir ruaidh, S. 47
!!!id: I0537
**kern
*clefG2
*k[]
*C:
{16g
16a
16b
16cc
=1
4dd
4cc
8b
8g
=2
2cc
8dd
8cc
=3
8b
8g
8g
8a
8g
8f
=4
4d
4c
4c
=5
2c
=6
16cccc
16cccc}
{8e
8f
=7
2g
8cc
8dd
=8
2ee
8ff
8ee
=9
8ee
8dd
8dd
8cc
8cc
8b
=10
4cc
4b
4b
=11
2cc
16dddd
16cccc}
{8e
=12yy
8f
=13
4.g
16a
16b
8cc
8dd
=14
2ee
8ff
8ee
=15
8ee
8dd
8dd
8cc
8cc
8b
=16
4dd
4cc
4cc
=17
16eeee
16cccc}
{16g
16a
16b
16cc
=18
4dd
4cc
8b
8g
=19
2cc
8dd
8cc
=20
8b
8g
8g
8a
8g
8f
=21
4d
4c
4c
=22
2c}
==
*-
!!!minrhy: 16
!!!meters: 3/4 ]  ZZ[4
!!!cut: Bean an fhir ruaidh, S. 47
!!!reg: Irland
!!!trd: O'SULLIVAN, Donal: Song of the Irish
!!!rhy1: XXXX  X__X__X_X_  X___X_X_  X_X_X_X_X_X_  X__X__X__  X___
!!!rhy2: X_X_  X___X_X_  X___X_X_  X_X_X_X_X_X_  X__X__X__  X___
!!!key: I0537  16  C 3/4 ]  ZZ[4
!!!mod: HEPTATONIK IONISCH] AMBITUS[11
!!!kad: 1+1+11
!!!akz: +2+1721_5+3+3+1+1_5+3+3+2+1_+2+1721_
!!!fot: 'a__b__bw_a__
!!!for: 'a__b__c__a__
!!!fok: 'Md_^a_^a_Md_
!! PHRAS[AUFTAKTIG]
!!!fkt: Liebeslied, Trennung
!!!bem: Melismen
!! IRISCHE V
!! PR[12] 2K[6] 2G[18] 3K[2] 3G[1] 4A[7] 4Ü[0] 5A[2] 6K[0] 6G[0]
!! 7K[0] 7G[1] 8A[0] MEHR[0] SI[37] ABS[99] SR[24] SP[13]
!! ST[16] 2k[9] 2g[26] 3k[9] 3g[5] 4d[0] 4ü[0] 5d[0] 6k[0] 6g[0]
!! 7k[0] 7g[1] 8d[0] mehr[0] si[51] dm[-14] sr[35] sp[15]
!! 1F[10] 2F[72] 3F[7] 4F[4] LF[0] 2P[0] 3P[7] 4P[0] TRI[0] DF[5] AB[100]
!! TF[0] U3K[0] U3[0] U4[0] U4Ü[0] U5[0] U6K[0] U6[0] U7K[0] U7[0]
!! N1[16] N2K[0] N2[9] N3K[0] N3[13] N4[7] N4Ü[0] N5[22] N6K[0] N6[12]
!!!n7k: 0] N7[10] O1[9] O2K[0] O2[1] O3K[0] O3[1] HÖ[0
